public/images/users.svg

<svg width="24" height="24" fill="none" xmlns="http://www.w3.org/2000/svg"><circle r="3.404" transform="matrix(-1 0 0 1 12.213 8.404)" stroke="#1B31FF" stroke-width="1.5"/><path d="M18.16 17.97c0 1.01-.89 1.79-1.89 1.65l-.33-.05c-2.48-.35-4.99-.35-7.46 0l-.33.05c-1 .14-1.9-.64-1.9-1.65v-1.12c0-.73.46-1.38 1.15-1.63 3.11-1.11 6.51-1.11 9.62 0 .69.25 1.14.9 1.14 1.63v1.12z" stroke="#1B31FF" stroke-width="1.5"/><path d="M17.32 11.9a2.676 2.676 0 0 0 0-5.35M19.44 14.13c.56.11 1.11.26 1.65.45.54.2.91.71.91 1.29v.88c0 .79-.71 1.4-1.49 1.29l-.26-.04M6.67 11.9a2.676 2.676 0 0 1 0-5.35M4.55 14.13c-.56.11-1.11.26-1.65.45-.54.2-.9.71-.9 1.29v.88c0 .79.7 1.4 1.48 1.29l.27-.04" stroke="#1B31FF" stroke-width="1.5" stroke-linecap="round"/></svg>

<svg width="24.000000" height="24.000000" viewBox="0 0 24 24" fill="none" xmlns="http://www.w3.org/2000/svg" xmlns:xlink="http://www.w3.org/1999/xlink">
	<desc>
			Created with Pixso.
	</desc>
	<defs/>
	<circle id="Ellipse 33" r="3.404255" transform="matrix(-1 0 0 1 12.2129 8.4043)" stroke="#1B31FF" stroke-opacity="1.000000" stroke-width="1.500000"/>
	<path id="Rectangle 2" d="M18.16 17.97C18.16 18.98 17.27 19.76 16.27 19.62L15.94 19.57C13.46 19.22 10.95 19.22 8.48 19.57L8.15 19.62C7.15 19.76 6.25 18.98 6.25 17.97L6.25 16.85C6.25 16.12 6.71 15.47 7.4 15.22C10.51 14.11 13.91 14.11 17.02 15.22C17.71 15.47 18.16 16.12 18.16 16.85L18.16 17.97Z" stroke="#1B31FF" stroke-opacity="1.000000" stroke-width="1.500000"/>
	<path id="Ellipse 33" d="M17.32 11.9C18.79 11.9 19.99 10.7 19.99 9.22C19.99 7.75 18.79 6.55 17.32 6.55" stroke="#1B31FF" stroke-opacity="1.000000" stroke-width="1.500000" stroke-linecap="round"/>
	<path id="Rectangle 2" d="M19.44 14.13C20 14.24 20.55 14.39 21.09 14.58C21.63 14.78 22 15.29 22 15.87L22 16.75C22 17.54 21.29 18.15 20.51 18.04L20.25 18" stroke="#1B31FF" stroke-opacity="1.000000" stroke-width="1.500000" stroke-linecap="round"/>
	<path id="Ellipse 33" d="M6.67 11.9C5.2 11.9 4 10.7 4 9.22C4 7.75 5.2 6.55 6.67 6.55" stroke="#1B31FF" stroke-opacity="1.000000" stroke-width="1.500000" stroke-linecap="round"/>
	<path id="Rectangle 2" d="M4.55 14.13C3.99 14.24 3.44 14.39 2.9 14.58C2.36 14.78 2 15.29 2 15.87L2 16.75C2 17.54 2.7 18.15 3.48 18.04L3.75 18" stroke="#1B31FF" stroke-opacity="1.000000" stroke-width="1.500000" stroke-linecap="round"/>
</svg>
